Yaru++/devices/symbolic/input-gaming-symbolic.svg

<svg height="16" width="16" xmlns="http://www.w3.org/2000/svg">
  <path d="m7 2v.5h1v-.5zm0 1v.5h1v-.5zm0 1v3h-3.5a.494.494 0 0 0 -.1.008 3.5 3.5 0 0 0 -3.28 2.586 3.505 3.505 0 0 0 1.63 3.937 3.502 3.502 0 0 0 4.195-.53h3.11a3.502 3.502 0 0 0 4.195.53 3.505 3.505 0 0 0 1.63-3.937 3.5 3.5 0 0 0 -3.286-2.586.477.477 0 0 0 -.094-.008h-3.5v-3zm-3.5 4h8c1.134 0 2.123.758 2.416 1.854a2.497 2.497 0 0 1 -1.166 2.812 2.489 2.489 0 0 1 -2.877-.28c-.13-.129-.259-.39-.494-.386h-3.759c-.234-.003-.394.268-.492.385-.8.693-1.95.817-2.879.281a2.496 2.496 0 0 1 -1.164-2.812 2.495 2.495 0 0 1 2.415-1.854zm-.5 1v1h-1v1h1v1h1v-1h1v-1h-1v-1zm8.5 0a.5.5 0 1 0 0 1 .5.5 0 0 0 0-1zm-1 1a.5.5 0 1 0 0 1 .5.5 0 0 0 0-1zm2 0a.5.5 0 1 0 0 1 .5.5 0 0 0 0-1zm-1 1a.5.5 0 1 0 0 1 .5.5 0 0 0 0-1z" fill="#808080"/>
</svg>

<svg height="16" width="16" xmlns="http://www.w3.org/2000/svg">
    <path d="M7 2v.5h1V2zm0 1v.5h1V3zm0 1v3H3.5a.494.494 0 0 0-.1.008A3.5 3.5 0 0 0 .12 9.594a3.505 3.505 0 0 0 1.63 3.937 3.502 3.502 0 0 0 4.195-.53h3.11a3.502 3.502 0 0 0 4.195.53 3.505 3.505 0 0 0 1.63-3.937 3.5 3.5 0 0 0-3.286-2.586A.477.477 0 0 0 11.5 7H8V4zM3.5 8h8c1.134 0 2.123.758 2.416 1.854a2.497 2.497 0 0 1-1.166 2.812 2.489 2.489 0 0 1-2.877-.28c-.13-.129-.259-.39-.494-.386H5.62c-.234-.003-.394.268-.492.385-.8.693-1.95.817-2.879.281a2.496 2.496 0 0 1-1.164-2.812A2.495 2.495 0 0 1 3.5 8zM3 9v1H2v1h1v1h1v-1h1v-1H4V9zm8.5 0a.5.5 0 1 0 0 1 .5.5 0 0 0 0-1zm-1 1a.5.5 0 1 0 0 1 .5.5 0 0 0 0-1zm2 0a.5.5 0 1 0 0 1 .5.5 0 0 0 0-1zm-1 1a.5.5 0 1 0 0 1 .5.5 0 0 0 0-1z" style="line-height:normal;font-variant-ligatures:normal;font-variant-position:normal;font-variant-caps:normal;font-variant-numeric:normal;font-variant-alternates:normal;font-feature-settings:normal;text-indent:0;text-align:start;text-decoration-line:none;text-decoration-style:solid;text-decoration-color:#000;text-transform:none;text-orientation:mixed;shape-padding:0;isolation:auto;mix-blend-mode:normal;marker:none" color="#000" font-weight="400" font-family="sans-serif" white-space="normal" overflow="visible" fill="gray"/>
</svg>
